X:24
T:Road to Boston (Kentish Guard's March)
S:Harmony, Carroll Collection, Vol II, 1804
M:2/4
L:1/8
Q:1/4=100
K:D
V:1
%%MIDI channel 1
%%MIDI program 72
%%MIDI transpose 8
%%MIDI grace 1/8
%%MIDI ratio 3 1
|:A|fz fe/f/|gfed|cdef|dA FA|fz fe/f/|gfed|cdef|d2 d:|
|:f|a2 ag/a/|bagf|g2 gf/g/|agfe|f2 fe/f/|gfed|cdef|d2 d:|
V:2
%%MIDI channel 1
%%MIDI program 72
%%MIDI transpose 8
%%MIDI grace 1/8
%%MIDI ratio 3 1
|:!p!z|dA dc/d/|ed cd|EF Ad|fe de/d/|dA dc/d/|ed cd|EF GA|F2F:|
|:z|f2 fe/f/|gfed|ec ed/e/|fedc|dA dc/d/|ed cd|EF GA/G/|F2F:|
